packages/ui-icons/svg/Solid/module.svg

<svg viewBox="0 0 1920 1920" version="1.1" xmlns="http://www.w3.org/2000/svg">
    <path d="M1581.17647,1072.47059 L1355.29412,1072.47059 L1355.29412,1511.02118 L988.461176,1724.70588 C970.955294,1734.98353 949.044706,1734.98353 931.538824,1724.70588 L564.705882,1511.02118 L564.705882,1072.47059 L338.823529,1072.47059 L338.823529,685.647059 C338.823529,665.543529 349.665882,646.908235 366.832941,636.856471 L677.647059,455.811765 L677.647059,620.705882 L1242.35294,620.705882 L1242.35294,455.811765 L1553.16706,636.856471 C1570.33412,646.908235 1581.17647,665.543529 1581.17647,685.647059 L1581.17647,1072.47059 Z M1694.11765,1072.47059 L1694.11765,685.647059 C1694.11765,625.562353 1661.92941,569.430588 1609.97647,539.162353 L1242.35294,325.138824 L1242.35294,56 L677.647059,56 L677.647059,325.138824 L310.023529,539.162353 C258.070588,569.430588 225.882353,625.562353 225.882353,685.647059 L225.882353,1072.47059 L-5.68434189e-14,1072.47059 L-5.68434189e-14,1637.17647 L557.025882,1637.17647 L874.729412,1822.28706 C901.157647,1837.64706 930.409412,1845.32706 960,1845.32706 C989.590588,1845.32706 1018.95529,1837.64706 1045.27059,1822.28706 L1362.97412,1637.17647 L1920,1637.17647 L1920,1072.47059 L1694.11765,1072.47059 Z" stroke="none" stroke-width="1" fill-rule="evenodd"/>
</svg>

<svg viewBox="0 0 1920 1920" version="1.1" xmlns="http://www.w3.org/2000/svg">
    <path d="M1581.176 1072.47h-225.882v438.551l-366.833 213.685c-17.506 10.278-39.416 10.278-56.922 0L564.706 1511.02v-438.55H338.824V685.647c0-20.103 10.842-38.739 28.009-48.79l310.814-181.045v164.894h564.706V455.812l310.814 181.044c17.167 10.052 28.01 28.688 28.01 48.791v386.824zm112.942 0V685.648c0-60.085-32.189-116.216-84.142-146.485L1242.353 325.14V56H677.647v269.139L310.024 539.162c-51.953 30.269-84.142 86.4-84.142 146.485v386.824H0v564.705h557.026l317.703 185.111c26.429 15.36 55.68 23.04 85.271 23.04 29.59 0 58.955-7.68 85.27-23.04l317.704-185.11H1920V1072.47h-225.882z" stroke="none" stroke-width="1" fill-rule="evenodd"/>
</svg>
